svg/u1f469_1f3fc_200d_2764_200d_1f469_1f3fe.svg

<svg viewBox="0 0 128 128" xmlns="http://www.w3.org/2000/svg">
  <g>
    <g id="hair_8_">
      <path id="hair_9_" d="M5.43,74.62c0.06-0.26,4.95-29.34,30.8-27.08c15.04,1.31,25.48,11.52,25.6,26.61 c0.04,5.32,0.22,14.51-0.22,18.69c-1.83,17.58-7.74,28.43-8.53,28.63c-4.16,1.02-41.34,3.35-44.09-2.23 C2.65,106.44,3.99,83.56,5.43,74.62z" fill="#AB872F"/>
    </g>
    <linearGradient id="SVGID_1_" gradientTransform="matrix(-1 0 0 1 1241.6432 0)" gradientUnits="userSpaceOnUse" x1="1210.7977" x2="1210.7977" y1="123.5179" y2="110.8654">
      <stop offset="0" stop-color="#530EEB"/>
      <stop offset="1" stop-color="#651FFF"/>
    </linearGradient>
    <path d="M27.08,111.11h3.76h3.76c8.69-0.66,21.56,3.24,24.47,12.89H30.85H2.61 C5.52,114.36,18.39,110.45,27.08,111.11z" fill="url(#SVGID_1_)"/>
    <path id="neck_2_" d="M30.61,117.83L30.61,117.83c-3.76,0-6.8-3.05-6.8-6.8v-4.54h13.61v4.54 C37.41,114.79,34.36,117.83,30.61,117.83z" fill="#C48E6A"/>
    <g id="face_1_">
      <g id="head_1_">
        <path d="M37.51,55.63L37.51,55.63L37.51,55.63C25.36,54.14,13,61.79,10.64,80.95 c-1.89,15.39,6.52,25.66,14.46,29.61c1.89,0.94,3.76,1.53,5.45,1.74c1.68,0.21,3.62,0.09,5.67-0.36 c8.66-1.9,19.33-9.84,21.23-25.25C59.8,67.53,49.66,57.12,37.51,55.63z" fill="#E0BB95"/>
      </g>
      <path id="nose_1_" d="M36.63,94.22c-0.07-0.04-0.14-0.07-0.22-0.08l-4.94-0.61c-0.08,0-0.15,0.01-0.23,0.03 c-0.47,0.13-0.77,0.56-0.62,1.08c0.15,0.52,0.96,2.03,2.94,2.27c1.98,0.24,3.13-1.02,3.41-1.49 C37.25,94.95,37.06,94.46,36.63,94.22z" fill="#C48E6A"/>
      <g id="eyebrows_1_">
        <path d="M29.03,80.21c-0.55-0.95-1.91-2.4-4.85-2.76s-4.61,0.71-5.37,1.5c-0.34,0.35-0.32,0.8-0.15,1.09 c0.16,0.27,0.68,0.57,1.31,0.44c0.63-0.13,1.89-0.6,3.88-0.37c1.99,0.26,3.1,1.02,3.68,1.3c0.58,0.28,1.16,0.12,1.38-0.11 C29.14,81.06,29.27,80.63,29.03,80.21z" fill="#AB872F"/>
        <path d="M52.23,83.06c-0.55-0.95-1.91-2.4-4.85-2.76s-4.61,0.71-5.37,1.5c-0.34,0.35-0.32,0.8-0.15,1.09 c0.16,0.27,0.68,0.57,1.31,0.44c0.63-0.13,1.89-0.6,3.88-0.37c1.99,0.26,3.1,1.02,3.68,1.3c0.58,0.28,1.16,0.12,1.38-0.11 C52.35,83.91,52.48,83.48,52.23,83.06z" fill="#AB872F"/>
      </g>
      <g id="eyes_1_">
        <ellipse cx="46.34" cy="88.83" fill="#5D4037" rx="3.59" ry="3.46" transform="matrix(0.1219 -0.9925 0.9925 0.1219 -47.4729 123.9972)"/>
        <ellipse cx="23.13" cy="85.98" fill="#5D4037" rx="3.59" ry="3.46" transform="matrix(0.1219 -0.9925 0.9925 0.1219 -65.0243 98.4599)"/>
      </g>
      <path id="mouth_1_" d="M39.11,100.32c-2.39,1.05-9.67,0.15-11.73-1.44c-1.18-0.92-2.63,0.08-2.24,1.31 c0.38,1.2,4.03,4.34,7.47,4.76c3.44,0.42,7.69-1.74,8.35-2.82C41.63,101.04,40.48,99.72,39.11,100.32z" fill="#6D4C41"/>
    </g>
    <path id="hair_7_" d="M36.22,47.55C10.37,45.29,5.49,74.36,5.43,74.62c-0.67,4.18-1.32,11.4-1.18,19.21 l7.24,0.51c-0.22-3.96,2.88-19.14,9.42-19.61c16.27-1.19,23.71-8.59,23.71-8.59c1.7,5.36,8.36,11.2,10.74,13.41 c1.95,1.81,0.84,11.69,0.47,14.4h5.66c0.04-0.36,0.08-0.72,0.12-1.09c0.43-4.18,0.26-13.37,0.22-18.69 C61.7,59.06,51.26,48.86,36.22,47.55z" fill="#AB872F"/>
    <radialGradient id="hairHighlights_1_" cx="33.6622" cy="88.578" gradientTransform="matrix(0.9988 0.0497 -0.0666 1.3393 5.9395 -31.7222)" gradientUnits="userSpaceOnUse" r="30.7367">
      <stop offset="0.7651" stop-color="#BFA055" stop-opacity="0"/>
      <stop offset="0.9659" stop-color="#BFA055"/>
    </radialGradient>
    <path id="hairHighlights" d="M61.82,74.15c-0.12-15.09-10.56-25.29-25.6-26.61 C10.37,45.29,5.49,74.36,5.43,74.62c-1.34,8.35-2.6,28.87,2.4,41.97c5.33-4.24,13.28-5.94,19.25-5.48h3.76h3.76 c6.52-0.5,15.39,1.57,20.64,6.71c2.12-4.59,5.14-13.29,6.35-24.98C62.04,88.67,61.86,79.47,61.82,74.15z" fill="url(#hairHighlights_1_)"/>
  </g>
  <g>
    <path d="M78.41,3.74C67.87,3.74,64,14.5,64,14.5S60.18,3.74,49.57,3.74c-7.97,0-17.07,6.32-13.71,20.68 c3.36,14.36,28.16,32.26,28.16,32.26s24.72-17.9,28.08-32.26C95.46,10.06,87.02,3.74,78.41,3.74z" fill="#EF5592"/>
    <g>
      <path d="M47.94,4.81c8.27,0,12.38,8.89,13.71,12.5c0.19,0.51,0.91,0.53,1.12,0.03l1.21-2.83 c-1.71-5.45-6.4-10.77-14.41-10.77c-3.32,0-6.82,1.1-9.55,3.41C42.42,5.56,45.25,4.81,47.94,4.81z" fill="#DA2E75"/>
      <path d="M78.41,3.74c-2.55,0-4.7,0.74-6.51,1.85c1.27-0.49,2.68-0.78,4.23-0.78 c7.8,0,14.77,5.91,11.62,19.58c-2.7,11.73-18.5,25.96-23.32,31.39c-0.31,0.35-0.41,0.91-0.41,0.91s24.72-17.9,28.08-32.26 C95.46,10.06,86.38,3.74,78.41,3.74z" fill="#DA2E75"/>
    </g>
    <path d="M41.4,11.36c1.8-2.25,5.03-4.11,7.76-1.97c1.48,1.16,0.83,3.54-0.49,4.54 c-1.93,1.46-3.6,2.34-4.77,4.63c-0.7,1.38-1.13,2.88-1.34,4.42c-0.08,0.61-0.88,0.75-1.18,0.22 C39.34,19.6,38.77,14.65,41.4,11.36z" fill="#F386AB"/>
    <path d="M70.31,16.09c-0.85,0-1.44-0.82-1.13-1.61c0.57-1.45,1.31-2.86,2.2-4.11 c1.32-1.85,3.82-2.92,5.41-1.81c1.63,1.15,1.42,3.43,0.27,4.54C74.61,15.49,71.53,16.09,70.31,16.09z" fill="#F386AB"/>
  </g>
  <g>
    <g id="hair_2_">
      <path id="hair_3_" d="M122.57,74.62c-0.06-0.26-4.95-29.34-30.8-27.08c-15.04,1.31-25.48,11.52-25.6,26.61 c-0.04,5.32-0.22,14.51,0.22,18.69c1.83,17.58,7.74,28.43,8.53,28.63c4.16,1.02,41.34,3.35,44.09-2.23 C125.35,106.44,124.01,83.56,122.57,74.62z" fill="#3C2C23"/>
    </g>
    <linearGradient id="SVGID_2_" gradientUnits="userSpaceOnUse" x1="97.2363" x2="97.2363" y1="123.5179" y2="110.8654">
      <stop offset="0" stop-color="#9900E6"/>
      <stop offset="1" stop-color="#AA00FF"/>
    </linearGradient>
    <path d="M101,111.11h-3.76h-3.76C84.78,110.45,71.91,114.36,69,124h28.23h28.23 C122.57,114.36,109.69,110.45,101,111.11z" fill="url(#SVGID_2_)"/>
    <path id="neck" d="M97,117.83L97,117.83c-3.76,0-6.8-3.05-6.8-6.8v-4.54h13.61v4.54 C103.8,114.79,100.75,117.83,97,117.83z" fill="#7A4C32"/>
    <g id="face_125_">
      <g id="head_349_">
        <path d="M90.49,55.63L90.49,55.63L90.49,55.63c12.15-1.49,24.51,6.16,26.86,25.32 c1.89,15.39-6.52,25.66-14.46,29.61c-1.89,0.94-3.76,1.53-5.45,1.74c-1.68,0.21-3.62,0.09-5.67-0.36 c-8.66-1.9-19.33-9.84-21.23-25.25C68.2,67.53,78.34,57.12,90.49,55.63z" fill="#A56C43"/>
      </g>
      <path id="nose_177_" d="M91.37,94.22c0.07-0.04,0.14-0.07,0.22-0.08l4.94-0.61c0.08,0,0.15,0.01,0.23,0.03 c0.47,0.13,0.77,0.56,0.62,1.08c-0.15,0.52-0.96,2.03-2.94,2.27c-1.98,0.24-3.13-1.02-3.41-1.49 C90.75,94.95,90.94,94.46,91.37,94.22z" fill="#875334"/>
      <g id="eyebrows_178_">
        <path d="M98.97,80.21c0.55-0.95,1.91-2.4,4.85-2.76s4.61,0.71,5.37,1.5c0.34,0.35,0.32,0.8,0.15,1.09 c-0.16,0.27-0.68,0.57-1.31,0.44c-0.63-0.13-1.89-0.6-3.88-0.37c-1.99,0.26-3.1,1.02-3.68,1.3c-0.58,0.28-1.16,0.12-1.38-0.11 C98.86,81.06,98.73,80.63,98.97,80.21z" fill="#42312C"/>
        <path d="M75.77,83.06c0.55-0.95,1.91-2.4,4.85-2.76s4.61,0.71,5.37,1.5c0.34,0.35,0.32,0.8,0.15,1.09 c-0.16,0.27-0.68,0.57-1.31,0.44c-0.63-0.13-1.89-0.6-3.88-0.37c-1.99,0.26-3.1,1.02-3.68,1.3c-0.58,0.28-1.16,0.12-1.38-0.11 C75.65,83.91,75.52,83.48,75.77,83.06z" fill="#42312C"/>
      </g>
      <g id="eyes_175_">
        <ellipse cx="81.66" cy="88.83" fill="#42312C" rx="3.46" ry="3.59" transform="matrix(0.9925 -0.1219 0.1219 0.9925 -10.2167 10.6139)"/>
        <ellipse cx="104.87" cy="85.98" fill="#42312C" rx="3.46" ry="3.59" transform="matrix(0.9925 -0.1219 0.1219 0.9925 -9.6964 13.421)"/>
      </g>
      <path id="mouth_103_" d="M88.89,100.32c2.39,1.05,9.67,0.15,11.73-1.44c1.18-0.92,2.63,0.08,2.24,1.31 c-0.38,1.2-4.03,4.34-7.47,4.76c-3.44,0.42-7.69-1.74-8.35-2.82C86.37,101.04,87.52,99.72,88.89,100.32z" fill="#473530"/>
    </g>
    <g id="hair_1_">
      <path id="hair" d="M123.74,94.36c0.18-8.02-0.48-15.47-1.17-19.74c-0.06-0.26-4.95-29.34-30.8-27.08 c-15.04,1.31-25.48,11.52-25.6,26.61c-0.04,5.32-0.22,14.51,0.22,18.69c0.04,0.37,0.08,0.73,0.12,1.09h5.43 c-0.37-2.7-0.42-5.33-0.01-7.96c1.53-9.93,15.32-7.43,26.9-19.86c0,0,4.28,5.49,13.07,11.26c5.44,3.57,4.59,13,4.37,16.96 L123.74,94.36z" fill="#3C2C23"/>
      <radialGradient id="hairHighlights_2_" cx="1153.7797" cy="88.5548" gradientTransform="matrix(-0.9988 0.0497 0.0666 1.3393 1240.7985 -87.3355)" gradientUnits="userSpaceOnUse" r="30.7367">
        <stop offset="0.7651" stop-color="#554138" stop-opacity="0"/>
        <stop offset="0.9659" stop-color="#554138"/>
      </radialGradient>
      <path id="hairHighlights_4_" d="M66.18,74.13c0.12-15.09,10.56-25.29,25.6-26.61 c25.85-2.26,30.74,26.82,30.8,27.08c1.34,8.35,2.6,28.87-2.4,41.97c-5.33-4.24-13.28-5.94-19.25-5.48h-3.76h-3.76 c-6.52-0.5-15.39,1.57-20.64,6.71c-2.12-4.59-5.14-13.29-6.35-24.98C65.96,88.65,66.14,79.45,66.18,74.13z" fill="url(#hairHighlights_2_)"/>
    </g>
  </g>
</svg>

<svg viewBox="0 0 128 128" xmlns="http://www.w3.org/2000/svg">
  <defs>
    <linearGradient id="SVGID_1_" gradientTransform="matrix(-1 0 0 1 0 0)" gradientUnits="userSpaceOnUse" x1="-30.8455" x2="-30.8455" y1="123.5179" y2="110.8654">
      <stop offset="0" stop-color="#530EEB"/>
      <stop offset="1" stop-color="#651FFF"/>
    </linearGradient>
    <linearGradient id="SVGID_2_" gradientUnits="userSpaceOnUse" x1="97.2363" x2="97.2363" y1="123.5179" y2="110.8654">
      <stop offset="0" stop-color="#9900E6"/>
      <stop offset="1" stop-color="#AA00FF"/>
    </linearGradient>
    <radialGradient id="hairHighlights_1_" cx="38.018696" cy="64.730678" gradientTransform="matrix(0.9988 0.0497 -0.0666 1.3393 0 0)" gradientUnits="userSpaceOnUse" r="30.7367">
      <stop offset="0.7651" stop-color="#BFA055" stop-opacity="0"/>
      <stop offset="0.9659" stop-color="#BFA055"/>
    </radialGradient>
    <radialGradient id="hairHighlights_2_" cx="-89.780642" cy="69.492192" gradientTransform="matrix(-0.9988 0.0497 0.0666 1.3393 0 0)" gradientUnits="userSpaceOnUse" r="30.7367">
      <stop offset="0.7651" stop-color="#554138" stop-opacity="0"/>
      <stop offset="0.9659" stop-color="#554138"/>
    </radialGradient>
  </defs>
  <path id="hair_9_" d="M5.43,74.62 C5.49,74.36 10.38,45.28 36.23,47.54 C51.27,48.85 61.71,59.06 61.83,74.15 C61.87,79.47 62.05,88.66 61.61,92.84 C59.78,110.42 53.87,121.27 53.08,121.47 C48.92,122.49 11.74,124.82 8.99,119.24 C2.65,106.44 3.99,83.56 5.43,74.62 Z" fill="#AB872F"/>
  <path d="M27.08,111.11 L30.84,111.11 L34.6,111.11 C43.29,110.45 56.16,114.35 59.07,124 L30.85,124 L2.61,124 C5.52,114.36 18.39,110.45 27.08,111.11 Z" fill="url(#SVGID_1_)"/>
  <path id="neck_2_" d="M30.61,117.83 L30.61,117.83 C26.85,117.83 23.81,114.78 23.81,111.03 L23.81,106.49 L37.42,106.49 L37.42,111.03 C37.41,114.79 34.36,117.83 30.61,117.83 Z" fill="#C48E6A"/>
  <path d="M37.51,55.63 L37.51,55.63 L37.51,55.63 C25.36,54.14 13,61.79 10.64,80.95 C8.75,96.34 17.16,106.61 25.1,110.56 C26.99,111.5 28.86,112.09 30.55,112.3 C32.23,112.51 34.17,112.39 36.22,111.94 C44.88,110.04 55.55,102.1 57.45,86.69 C59.8,67.53 49.66,57.12 37.51,55.63 Z" fill="#E0BB95"/>
  <path id="nose_1_" d="M36.63,94.22 C36.56,94.18 36.49,94.15 36.41,94.14 L31.47,93.53 C31.39,93.53 31.32,93.54 31.24,93.56 C30.77,93.69 30.47,94.12 30.62,94.64 C30.77,95.16 31.58,96.67 33.56,96.91 C35.54,97.15 36.69,95.89 36.97,95.42 C37.25,94.95 37.06,94.46 36.63,94.22 Z" fill="#C48E6A"/>
  <path d="M29.03,80.21 C28.48,79.26 27.12,77.81 24.18,77.45 C21.24,77.09 19.57,78.16 18.81,78.95 C18.47,79.3 18.49,79.75 18.66,80.04 C18.82,80.31 19.34,80.61 19.97,80.48 C20.6,80.35 21.86,79.88 23.85,80.11 C25.84,80.37 26.95,81.13 27.53,81.41 C28.11,81.69 28.69,81.53 28.91,81.3 C29.14,81.06 29.27,80.63 29.03,80.21 Z" fill="#AB872F"/>
  <path d="M52.23,83.06 C51.68,82.11 50.32,80.66 47.38,80.3 C44.44,79.94 42.77,81.01 42.01,81.8 C41.67,82.15 41.69,82.6 41.86,82.89 C42.02,83.16 42.54,83.46 43.17,83.33 C43.8,83.2 45.06,82.73 47.05,82.96 C49.04,83.22 50.15,83.98 50.73,84.26 C51.31,84.54 51.89,84.38 52.11,84.15 C52.35,83.91 52.48,83.48 52.23,83.06 Z" fill="#AB872F"/>
  <path d="M46.777,85.27 C48.674,85.503 50.015,87.287 49.774,89.255 C49.532,91.223 47.799,92.629 45.902,92.396 C44.006,92.163 42.664,90.379 42.906,88.411 C43.147,86.444 44.881,85.037 46.777,85.27 Z" fill="#5D4037"/>
  <path d="M23.568,82.421 C25.465,82.654 26.806,84.438 26.564,86.406 C26.323,88.374 24.589,89.78 22.693,89.547 C20.796,89.314 19.455,87.53 19.696,85.563 C19.938,83.595 21.671,82.188 23.568,82.421 Z" fill="#5D4037"/>
  <path id="mouth_1_" d="M39.11,100.32 C36.72,101.37 29.44,100.47 27.38,98.88 C26.2,97.96 24.75,98.96 25.14,100.19 C25.52,101.39 29.17,104.53 32.61,104.95 C36.05,105.37 40.3,103.21 40.96,102.13 C41.63,101.04 40.48,99.72 39.11,100.32 Z" fill="#6D4C41"/>
  <path id="hair_7_" d="M36.22,47.55 C10.37,45.29 5.49,74.36 5.43,74.62 C4.76,78.8 4.11,86.02 4.25,93.83 L11.49,94.34 C11.27,90.38 14.37,75.2 20.91,74.73 C37.18,73.54 44.62,66.14 44.62,66.14 C46.32,71.5 52.98,77.34 55.36,79.55 C57.31,81.36 56.2,91.24 55.83,93.95 L61.49,93.95 C61.53,93.59 61.57,93.23 61.61,92.86 C62.04,88.68 61.87,79.49 61.83,74.17 C61.7,59.06 51.26,48.86 36.22,47.55 Z" fill="#AB872F"/>
  <path id="hairHighlights" d="M61.82,74.15 C61.7,59.06 51.26,48.86 36.22,47.54 C10.37,45.29 5.49,74.36 5.43,74.62 C4.09,82.97 2.83,103.49 7.83,116.59 C13.16,112.35 21.11,110.65 27.08,111.11 L30.84,111.11 L34.6,111.11 C41.12,110.61 49.99,112.68 55.24,117.82 C57.36,113.23 60.38,104.53 61.59,92.84 C62.04,88.67 61.86,79.47 61.82,74.15 Z" fill="url(#hairHighlights_1_)"/>
  <path d="M78.41,3.74 C67.87,3.74 64,14.5 64,14.5 C64,14.5 60.18,3.74 49.57,3.74 C41.6,3.74 32.5,10.06 35.86,24.42 C39.22,38.78 64.02,56.68 64.02,56.68 C64.02,56.68 88.74,38.78 92.1,24.42 C95.46,10.06 87.02,3.74 78.41,3.74 Z" fill="#EF5592"/>
  <path d="M47.94,4.81 C56.21,4.81 60.32,13.7 61.65,17.31 C61.84,17.82 62.56,17.84 62.77,17.34 L63.98,14.51 C62.27,9.06 57.58,3.74 49.57,3.74 C46.25,3.74 42.75,4.84 40.02,7.15 C42.42,5.56 45.25,4.81 47.94,4.81 Z" fill="#DA2E75"/>
  <path d="M78.41,3.74 C75.86,3.74 73.71,4.48 71.9,5.59 C73.17,5.1 74.58,4.81 76.13,4.81 C83.93,4.81 90.9,10.72 87.75,24.39 C85.05,36.12 69.25,50.35 64.43,55.78 C64.12,56.13 64.02,56.69 64.02,56.69 C64.02,56.69 88.74,38.79 92.1,24.43 C95.46,10.06 86.38,3.74 78.41,3.74 Z" fill="#DA2E75"/>
  <path d="M41.4,11.36 C43.2,9.11 46.43,7.25 49.16,9.39 C50.64,10.55 49.99,12.93 48.67,13.93 C46.74,15.39 45.07,16.27 43.9,18.56 C43.2,19.94 42.77,21.44 42.56,22.98 C42.48,23.59 41.68,23.73 41.38,23.2 C39.34,19.6 38.77,14.65 41.4,11.36 Z" fill="#F386AB"/>
  <path d="M70.31,16.09 C69.46,16.09 68.87,15.27 69.18,14.48 C69.75,13.03 70.49,11.62 71.38,10.37 C72.7,8.52 75.2,7.45 76.79,8.56 C78.42,9.71 78.21,11.99 77.06,13.1 C74.61,15.49 71.53,16.09 70.31,16.09 Z" fill="#F386AB"/>
  <path id="hair_3_" d="M122.57,74.62 C122.51,74.36 117.62,45.28 91.77,47.54 C76.73,48.85 66.29,59.06 66.17,74.15 C66.13,79.47 65.95,88.66 66.39,92.84 C68.22,110.42 74.13,121.27 74.92,121.47 C79.08,122.49 116.26,124.82 119.01,119.24 C125.35,106.44 124.01,83.56 122.57,74.62 Z" fill="#3C2C23"/>
  <path d="M101,111.11 L97.24,111.11 L93.48,111.11 C84.78,110.45 71.91,114.36 69,124 L97.23,124 L125.46,124 C122.57,114.36 109.69,110.45 101,111.11 Z" fill="url(#SVGID_2_)"/>
  <path id="neck" d="M97,117.83 L97,117.83 C93.24,117.83 90.2,114.78 90.2,111.03 L90.2,106.49 L103.81,106.49 L103.81,111.03 C103.8,114.79 100.75,117.83 97,117.83 Z" fill="#7A4C32"/>
  <path d="M90.49,55.63 L90.49,55.63 L90.49,55.63 C102.64,54.14 115,61.79 117.35,80.95 C119.24,96.34 110.83,106.61 102.89,110.56 C101,111.5 99.13,112.09 97.44,112.3 C95.76,112.51 93.82,112.39 91.77,111.94 C83.11,110.04 72.44,102.1 70.54,86.69 C68.2,67.53 78.34,57.12 90.49,55.63 Z" fill="#A56C43"/>
  <path id="nose_177_" d="M91.37,94.22 C91.44,94.18 91.51,94.15 91.59,94.14 L96.53,93.53 C96.61,93.53 96.68,93.54 96.76,93.56 C97.23,93.69 97.53,94.12 97.38,94.64 C97.23,95.16 96.42,96.67 94.44,96.91 C92.46,97.15 91.31,95.89 91.03,95.42 C90.75,94.95 90.94,94.46 91.37,94.22 Z" fill="#875334"/>
  <path d="M98.97,80.21 C99.52,79.26 100.88,77.81 103.82,77.45 C106.76,77.09 108.43,78.16 109.19,78.95 C109.53,79.3 109.51,79.75 109.34,80.04 C109.18,80.31 108.66,80.61 108.03,80.48 C107.4,80.35 106.14,79.88 104.15,80.11 C102.16,80.37 101.05,81.13 100.47,81.41 C99.89,81.69 99.31,81.53 99.09,81.3 C98.86,81.06 98.73,80.63 98.97,80.21 Z" fill="#42312C"/>
  <path d="M75.77,83.06 C76.32,82.11 77.68,80.66 80.62,80.3 C83.56,79.94 85.23,81.01 85.99,81.8 C86.33,82.15 86.31,82.6 86.14,82.89 C85.98,83.16 85.46,83.46 84.83,83.33 C84.2,83.2 82.94,82.73 80.95,82.96 C78.96,83.22 77.85,83.98 77.27,84.26 C76.69,84.54 76.11,84.38 75.89,84.15 C75.65,83.91 75.52,83.48 75.77,83.06 Z" fill="#42312C"/>
  <path d="M85.093,88.402 C85.335,90.369 83.993,92.153 82.097,92.386 C80.2,92.619 78.467,91.213 78.225,89.245 C77.983,87.277 79.325,85.493 81.222,85.26 C83.118,85.027 84.852,86.434 85.093,88.402 Z" fill="#42312C"/>
  <path d="M108.302,85.551 C108.544,87.519 107.202,89.303 105.306,89.536 C103.409,89.769 101.676,88.362 101.434,86.394 C101.192,84.426 102.534,82.642 104.43,82.409 C106.327,82.176 108.06,83.583 108.302,85.551 Z" fill="#42312C"/>
  <path id="mouth_103_" d="M88.89,100.32 C91.28,101.37 98.56,100.47 100.62,98.88 C101.8,97.96 103.25,98.96 102.86,100.19 C102.48,101.39 98.83,104.53 95.39,104.95 C91.95,105.37 87.7,103.21 87.04,102.13 C86.37,101.04 87.52,99.72 88.89,100.32 Z" fill="#473530"/>
  <path id="hair" d="M123.74,94.36 C123.92,86.34 123.26,78.89 122.57,74.62 C122.51,74.36 117.62,45.28 91.77,47.54 C76.73,48.85 66.29,59.06 66.17,74.15 C66.13,79.47 65.95,88.66 66.39,92.84 C66.43,93.21 66.47,93.57 66.51,93.93 L71.94,93.93 C71.57,91.23 71.52,88.6 71.93,85.97 C73.46,76.04 87.25,78.54 98.83,66.11 C98.83,66.11 103.11,71.6 111.9,77.37 C117.34,80.94 116.49,90.37 116.27,94.33 L123.74,94.36 Z" fill="#3C2C23"/>
  <path id="hairHighlights_4_" d="M66.18,74.13 C66.3,59.04 76.74,48.84 91.78,47.52 C117.63,45.26 122.52,74.34 122.58,74.6 C123.92,82.95 125.18,103.47 120.18,116.57 C114.85,112.33 106.9,110.63 100.93,111.09 L97.17,111.09 L93.41,111.09 C86.89,110.59 78.02,112.66 72.77,117.8 C70.65,113.21 67.63,104.51 66.42,92.82 C65.96,88.65 66.14,79.45 66.18,74.13 Z" fill="url(#hairHighlights_2_)"/>
</svg>
